X: 22082
T: Knocknagree Fair
R: jig
M: 6/8
K: Gmajor
|:~G3 AGA|Bde dBG|BcB B2A|BcB B2A|
~G3 AGA|B/c/de dBG|ABA A2G|1 ABA A2D:|2 ABA A2f||
|:gfe fed|e/f/ge dBG|BcB B2A|BcB B2f|
[1 gfe fed|e/f/ge dBG|ABA A2G|ABA A2f:|
[2 ~g3 aga|bge dBG|ABA A2G|ABA FED||

